X:5
T:Canto, Secondo Coro, Canzon septimi toni a 8, from Sacrae Symphoniae (1597)
C:Giovanni Gabrielli (1557-1612)
%%MIDI nobarlines
%%MIDI ratio 3 1
M:4/2
L:1/2
K:C
z2d/ d/d/c/ |Bz z2 |z/d/c/>c/ B/>B/A/>A/ |G>g g//g//g//g//g/g/ |
aA A>B |^cd ef |e2^f2 |
M:3/2
L:1/2
 z3 |z3 |z3 |dde |
f>fe |d>d^c |d2z |ddB |c>de |A3 |d2^c |
M:4/2
L:1/2
 d2z2 |zddd |c>BA>B |c/B/c/d/ e3 ee2|
^ff/f/g/>g/e/>e/ |=f2e2 |z2z/A/>A/A/ |^GGAz |
z4 |z2z/a/>a/a/ |^f/f//g//a/^f/g/e//=f//g/e/ |f/d//e//f/d/e/d^c/ |
d/A/A/A/d>B |B/B/ez/=c/c/c/ |f>edz//d//e//^f// |g>=fee |
d2c2 |z4 |zz/G/A/B/c |zz/ c/c/d/e |z4 |
z2zz/d/ |edcB |AeA2 |zdc/g/e |
z/g/d>e^f > g a/d/d2 |z4 |z4 |z4 |z4 |z2zz/A/ |B/^c/d/>d/cz |
z/e/e/>d/^cz |z/e/B/=c/Bz |z/B/B/^c/^d/ ed/ |
M:3/2
L:1/2
e3  |z3 |z3 |aaa |
g>gg |fff |e>ee |ddd |c2B |ee2 |
M:4/2
L:1/2
 e2 dd/d/ |
ddez/a/ |ezz2 |z/a/>f/g/>e/fe/ |fz z/a/g//f//e//d// |
^c/c/de/f/e |Hd2 d/ d/d/=c/ |Bz  z/d/c/>c/ |B/>B/A/>A/ Gz |
zz/d/ d//d//d//d//d/d/ |e>e f//f//f//f//f/f/ |eAA>B |^cd2^c |
ddd3 dd2 |zde/e/d/d/ |c/g/e//d//e//f//ge |Hd4|]
